icons/desktop/15/bookmark-fill-15.svg

<svg width="15" height="15" viewBox="0 0 15 15" fill="none" xmlns="http://www.w3.org/2000/svg">
<path d="M10.6301 13.866C10.4661 13.866 10.3001 13.824 10.1471 13.738C9.75207 13.515 9.36907 13.277 9.01107 13.031C8.58307 12.736 8.16807 12.418 7.77807 12.084C7.61407 11.944 7.38707 11.944 7.22307 12.084C6.83307 12.418 6.41807 12.735 5.99007 13.031C5.63207 13.277 5.24907 13.515 4.85407 13.738C4.50707 13.931 4.09607 13.904 3.78407 13.664C3.47707 13.429 3.34607 13.047 3.44207 12.67L4.25307 9.484C3.49507 9.07 2.77707 8.58 2.11707 8.024C1.92607 7.865 1.73307 7.693 1.54307 7.512C1.26907 7.251 1.17907 6.867 1.30907 6.508C1.44207 6.14 1.76707 5.894 2.15707 5.869L5.49707 5.653L6.60807 2.861C6.75707 2.488 7.09907 2.256 7.50007 2.256C7.90107 2.256 8.24407 2.488 8.39207 2.861L9.50307 5.653L12.8431 5.869C13.2331 5.895 13.5581 6.14 13.6911 6.508C13.8211 6.868 13.7311 7.252 13.4571 7.512C13.2671 7.693 13.0741 7.865 12.8831 8.024C12.2231 8.58 11.5051 9.071 10.7471 9.484L11.5581 12.671C11.6551 13.047 11.5241 13.429 11.2161 13.664C11.0421 13.798 10.8361 13.866 10.6291 13.866H10.6301Z" fill="black"/>
</svg>

<!-- This Source Code Form is subject to the terms of the Mozilla Public
   - License, v. 2.0. If a copy of the MPL was not distributed with this
   - file, You can obtain one at http://mozilla.org/MPL/2.0/. -->
<svg xmlns="http://www.w3.org/2000/svg" width="15" height="15" fill="context-fill" fill-opacity="context-fill-opacity" viewBox="0 0 15 15">
    <path d="M10.63 13.866a1 1 0 0 1-.483-.128 15 15 0 0 1-2.369-1.654.42.42 0 0 0-.555 0c-.39.334-.805.651-1.233.947-.358.246-.74.484-1.136.707a.96.96 0 0 1-1.07-.074.94.94 0 0 1-.342-.994l.811-3.186a13 13 0 0 1-2.71-1.972.93.93 0 0 1-.234-1.004.96.96 0 0 1 .848-.639l3.34-.216 1.111-2.792a.945.945 0 0 1 .892-.605c.401 0 .744.232.892.605l1.111 2.792 3.34.216c.39.026.715.271.848.639a.93.93 0 0 1-.234 1.004q-.286.272-.574.512a13 13 0 0 1-2.136 1.46l.811 3.187a.94.94 0 0 1-.342.993.96.96 0 0 1-.587.202z" />
</svg>
